rospo-icon-theme-classic-common/48x48/apps/com.github.bartzaalberg.lottery.svg

<svg height="48" width="48" xmlns="http://www.w3.org/2000/svg"><circle cx="24" cy="24" fill="#c2352a" r="20"/><path d="m24 4a20 20 0 0 0 -20 20 20 20 0 0 0  .0215.582 20 20 0 0 1 19.978-19.582 20 20 0 0 1 19.979 19.418 20 20 0 0 0  .021-.418 20 20 0 0 0 -20-20z" fill="#fff" opacity=".2"/><path d="m43.979 24.418a20 20 0 0 1 -19.979 19.582 20 20 0 0 1 -19.978-19.418 20 20 0 0 0 -.022.418 20 20 0 0 0 20 20 20 20 0 0 0 20-20 20 20 0 0 0 -.021-.582z" opacity=".2"/><path d="m24 12.999807a2 2 0 0 0 -2 2 2 2 0 0 0  .746094 1.554688c-1.193051 2.019277-2.385074 4.038718-3.578125 5.957031-.597865.910715-1.49578 1.488281-2.392578 1.488281-.797153 0-1.593576-.476841-2.091797-1.083984-.587596-.681959-1.43692-1.636638-2.119141-2.361328a1.5 1.5 0 0 0  .435547-1.054688 1.5 1.5 0 0 0 -1.5-1.5 1.5 1.5 0 0 0 -1.5 1.5 1.5 1.5 0 0 0 1.105469 1.447266l.08984.25c.597866 2.32738 1.097449 4.855376 1.695313 7.486328.09965.404761.398298.708984.796875.708984 3.3879.404761 6.875736.607422 10.363281.607422 3.487544 0 6.973429-.202661 10.361328-.607422.298933 0 .597626-.304223.697266-.708984.597865-2.630952 1.097448-5.158948 1.695313-7.486328l.08594-.25a1.5 1.5 0 0 0 1.109375-1.447266 1.5 1.5 0 0 0 -1.5-1.5 1.5 1.5 0 0 0 -1.5 1.5 1.5 1.5 0 0 0  .498047 1.115234c-.756078.736086-1.67387 1.798987-2.28125 2.503907-.597864.607143-1.294644.880859-2.091797.880859-.996441 0-1.794714-.577566-2.392578-1.488281-1.182626-1.90155-2.364249-3.902678-3.546875-5.904297a2 2 0 0 0  .814453-1.607422 2 2 0 0 0 -2-2zm10.535156 19.015625c-.09844-.02137-.210937-.02051-.335937.0039-3.334511.486103-6.743181.978222-10.152344.980469-3.440834.0023-6.880606-.48985-10.246094-.980469-.400001-.097664-.800781.292911-.800781.6836v2.050781c0 .48836.300781.976548.800781 1.074219 6.699999 1.562757 13.698438 1.562757 20.398438 0 .4-.09767.800781-.585859.800781-1.074219v-2.050781c0-.366271-.169531-.623403-.464844-.6875z" opacity=".2"/><path d="m24 12a2 2 0 0 0 -2 2 2 2 0 0 0  .746094 1.554688c-1.193051 2.019277-2.385074 4.038718-3.578125 5.957031-.597865.910715-1.49578 1.488281-2.392578 1.488281-.797153 0-1.593576-.476841-2.091797-1.083984-.587596-.681959-1.43692-1.636638-2.119141-2.361328a1.5 1.5 0 0 0  .435547-1.054688 1.5 1.5 0 0 0 -1.5-1.5 1.5 1.5 0 0 0 -1.5 1.5 1.5 1.5 0 0 0 1.105469 1.447266l.089843.25c.597866 2.32738 1.097449 4.855376 1.695313 7.486328.099645.404761.398298.708984.796875.708984 3.3879.404761 6.875736.607422 10.363281.607422 3.487544 0 6.973429-.202661 10.361328-.607422.298933 0 .597626-.304223.697266-.708984.597865-2.630952 1.097448-5.158948 1.695313-7.486328l.085937-.25a1.5 1.5 0 0 0 1.109375-1.447266 1.5 1.5 0 0 0 -1.5-1.5 1.5 1.5 0 0 0 -1.5 1.5 1.5 1.5 0 0 0  .498047 1.115234c-.756078.736086-1.67387 1.798987-2.28125 2.503907-.597864.607143-1.294644.880859-2.091797.880859-.996441 0-1.794714-.577566-2.392578-1.488281-1.182626-1.90155-2.364249-3.902678-3.546875-5.904297a2 2 0 0 0  .814453-1.607422 2 2 0 0 0 -2-2zm10.535156 19.015625c-.098437-.021366-.210937-.020512-.335937.003906-3.334511.486103-6.743181.978222-10.152344.980469-3.440834.002268-6.880606-.48985-10.246094-.980469-.400001-.09767-.800781.292905-.800781.683594v2.050781c0 .48836.300781.976548.800781 1.074219 6.699999 1.562757 13.698438 1.562757 20.398438 0 .4-.09767.800781-.585859.800781-1.074219v-2.050781c0-.366271-.169531-.623403-.464844-.6875z" fill="#ffe15b"/></svg>

<svg xmlns="http://www.w3.org/2000/svg" width="48" height="48" version="1">
 <circle fill="#c2352a" cx="24" cy="24" r="20"/>
 <path fill="#fff" opacity=".2" d="m24 4a20 20 0 0 0 -20 20 20 20 0 0 0 0.0215 0.582 20 20 0 0 1 19.978 -19.582 20 20 0 0 1 19.979 19.418 20 20 0 0 0 0.021 -0.418 20 20 0 0 0 -20 -20z"/>
 <path opacity=".2" d="m43.979 24.418a20 20 0 0 1 -19.979 19.582 20 20 0 0 1 -19.978 -19.418 20 20 0 0 0 -0.022 0.418 20 20 0 0 0 20 20 20 20 0 0 0 20 -20 20 20 0 0 0 -0.021 -0.582z"/>
 <path d="m 24,12.999807 a 2,2 0 0 0 -2,2 2,2 0 0 0 0.746094,1.554688 c -1.193051,2.019277 -2.385074,4.038718 -3.578125,5.957031 -0.597865,0.910715 -1.49578,1.488281 -2.392578,1.488281 -0.797153,0 -1.593576,-0.476841 -2.091797,-1.083984 -0.587596,-0.681959 -1.43692,-1.636638 -2.119141,-2.361328 A 1.5,1.5 0 0 0 13,19.499807 a 1.5,1.5 0 0 0 -1.5,-1.5 1.5,1.5 0 0 0 -1.5,1.5 1.5,1.5 0 0 0 1.105469,1.447266 l 0.08984,0.25 c 0.597866,2.32738 1.097449,4.855376 1.695313,7.486328 0.09965,0.404761 0.398298,0.708984 0.796875,0.708984 3.3879,0.404761 6.875736,0.607422 10.363281,0.607422 3.487544,0 6.973429,-0.202661 10.361328,-0.607422 0.298933,0 0.597626,-0.304223 0.697266,-0.708984 0.597865,-2.630952 1.097448,-5.158948 1.695313,-7.486328 l 0.08594,-0.25 A 1.5,1.5 0 0 0 38,19.499807 a 1.5,1.5 0 0 0 -1.5,-1.5 1.5,1.5 0 0 0 -1.5,1.5 1.5,1.5 0 0 0 0.498047,1.115234 c -0.756078,0.736086 -1.67387,1.798987 -2.28125,2.503907 -0.597864,0.607143 -1.294644,0.880859 -2.091797,0.880859 -0.996441,0 -1.794714,-0.577566 -2.392578,-1.488281 -1.182626,-1.90155 -2.364249,-3.902678 -3.546875,-5.904297 A 2,2 0 0 0 26,14.999807 a 2,2 0 0 0 -2,-2 z m 10.535156,19.015625 c -0.09844,-0.02137 -0.210937,-0.02051 -0.335937,0.0039 -3.334511,0.486103 -6.743181,0.978222 -10.152344,0.980469 -3.440834,0.0023 -6.880606,-0.48985 -10.246094,-0.980469 C 13.40078,31.921668 13,32.312243 13,32.702932 l 0,2.050781 c 0,0.48836 0.300781,0.976548 0.800781,1.074219 6.699999,1.562757 13.698438,1.562757 20.398438,0 C 34.599219,35.730262 35,35.242073 35,34.753713 l 0,-2.050781 c 0,-0.366271 -0.169531,-0.623403 -0.464844,-0.6875 z" style="opacity:0.2"/>
 <path style="fill:#ffe15b" d="M 24 12 A 2 2 0 0 0 22 14 A 2 2 0 0 0 22.746094 15.554688 C 21.553043 17.573965 20.36102 19.593406 19.167969 21.511719 C 18.570104 22.422434 17.672189 23 16.775391 23 C 15.978238 23 15.181815 22.523159 14.683594 21.916016 C 14.095998 21.234057 13.246674 20.279378 12.564453 19.554688 A 1.5 1.5 0 0 0 13 18.5 A 1.5 1.5 0 0 0 11.5 17 A 1.5 1.5 0 0 0 10 18.5 A 1.5 1.5 0 0 0 11.105469 19.947266 L 11.195312 20.197266 C 11.793178 22.524646 12.292761 25.052642 12.890625 27.683594 C 12.99027 28.088355 13.288923 28.392578 13.6875 28.392578 C 17.0754 28.797339 20.563236 29 24.050781 29 C 27.538325 29 31.02421 28.797339 34.412109 28.392578 C 34.711042 28.392578 35.009735 28.088355 35.109375 27.683594 C 35.70724 25.052642 36.206823 22.524646 36.804688 20.197266 L 36.890625 19.947266 A 1.5 1.5 0 0 0 38 18.5 A 1.5 1.5 0 0 0 36.5 17 A 1.5 1.5 0 0 0 35 18.5 A 1.5 1.5 0 0 0 35.498047 19.615234 C 34.741969 20.35132 33.824177 21.414221 33.216797 22.119141 C 32.618933 22.726284 31.922153 23 31.125 23 C 30.128559 23 29.330286 22.422434 28.732422 21.511719 C 27.549796 19.610169 26.368173 17.609041 25.185547 15.607422 A 2 2 0 0 0 26 14 A 2 2 0 0 0 24 12 z M 34.535156 31.015625 C 34.436719 30.994259 34.324219 30.995113 34.199219 31.019531 C 30.864708 31.505634 27.456038 31.997753 24.046875 32 C 20.606041 32.002268 17.166269 31.51015 13.800781 31.019531 C 13.40078 30.921861 13 31.312436 13 31.703125 L 13 33.753906 C 13 34.242266 13.300781 34.730454 13.800781 34.828125 C 20.50078 36.390882 27.499219 36.390882 34.199219 34.828125 C 34.599219 34.730455 35 34.242266 35 33.753906 L 35 31.703125 C 35 31.336854 34.830469 31.079722 34.535156 31.015625 z"/>
</svg>
